X: 80
T: Totur
B:[[Notböcker/Melodier til gamle danske Almuedanse for Violin solo]]
O:Danmark
Z:Søren Bak Vestergaard
M: 2/4
L: 1/8
K: A
a2 gb|(.e2 .c2)|dfed|c2 A2|dfed|ceAc|B2 G2|A2 z2:|\
|:c2 (3(cBc)|e2 c2|dfed|c2 A2|dfed|ceAc|B2 G2|A2 z2:|

